flaticon/sewing/button.svg

<svg xmlns="http://www.w3.org/2000/svg" width="32" height="32" viewBox="0 0 24 24">
    <path d="M 12 0 C 5.398438 0 0 5.398438 0 12 C 0 18.601562 5.398438 24 12 24 C 18.601562 24 24 18.601562 24 12 C 24 5.398438 18.601562 0 12 0 Z M 12 23.199219 C 5.839844 23.199219 0.800781 18.160156 0.800781 12 C 0.800781 5.839844 5.839844 0.800781 12 0.800781 C 18.160156 0.800781 23.199219 5.839844 23.199219 12 C 23.199219 18.160156 18.160156 23.199219 12 23.199219 Z M 12 23.199219"/>
    <path d="M 12 3.199219 C 7.160156 3.199219 3.199219 7.160156 3.199219 12 C 3.199219 16.839844 7.160156 20.800781 12 20.800781 C 16.839844 20.800781 20.800781 16.839844 20.800781 12 C 20.800781 7.160156 16.839844 3.199219 12 3.199219 Z M 12 20 C 7.601562 20 4 16.398438 4 12 C 4 7.601562 7.601562 4 12 4 C 16.398438 4 20 7.601562 20 12 C 20 16.398438 16.398438 20 12 20 Z M 12 20"/>
    <path d="M8.800781 6.398438C7.480469 6.398438 6.398438 7.480469 6.398438 8.800781 6.398438 10.121094 7.480469 11.199219 8.800781 11.199219 10.121094 11.199219 11.199219 10.121094 11.199219 8.800781 11.199219 7.480469 10.121094 6.398438 8.800781 6.398438zM8.800781 10.398438C7.921875 10.398438 7.199219 9.679688 7.199219 8.800781 7.199219 7.921875 7.921875 7.199219 8.800781 7.199219 9.679688 7.199219 10.398438 7.921875 10.398438 8.800781 10.398438 9.679688 9.679688 10.398438 8.800781 10.398438zM15.199219 6.398438C13.878906 6.398438 12.800781 7.480469 12.800781 8.800781 12.800781 10.121094 13.878906 11.199219 15.199219 11.199219 16.519531 11.199219 17.601562 10.121094 17.601562 8.800781 17.601562 7.480469 16.519531 6.398438 15.199219 6.398438zM15.199219 10.398438C14.320312 10.398438 13.601562 9.679688 13.601562 8.800781 13.601562 7.921875 14.320312 7.199219 15.199219 7.199219 16.078125 7.199219 16.800781 7.921875 16.800781 8.800781 16.800781 9.679688 16.078125 10.398438 15.199219 10.398438zM8.800781 12.800781C7.480469 12.800781 6.398438 13.878906 6.398438 15.199219 6.398438 16.519531 7.480469 17.601562 8.800781 17.601562 10.121094 17.601562 11.199219 16.519531 11.199219 15.199219 11.199219 13.878906 10.121094 12.800781 8.800781 12.800781zM8.800781 16.800781C7.921875 16.800781 7.199219 16.078125 7.199219 15.199219 7.199219 14.320312 7.921875 13.601562 8.800781 13.601562 9.679688 13.601562 10.398438 14.320312 10.398438 15.199219 10.398438 16.078125 9.679688 16.800781 8.800781 16.800781zM15.199219 12.800781C13.878906 12.800781 12.800781 13.878906 12.800781 15.199219 12.800781 16.519531 13.878906 17.601562 15.199219 17.601562 16.519531 17.601562 17.601562 16.519531 17.601562 15.199219 17.601562 13.878906 16.519531 12.800781 15.199219 12.800781zM15.199219 16.800781C14.320312 16.800781 13.601562 16.078125 13.601562 15.199219 13.601562 14.320312 14.320312 13.601562 15.199219 13.601562 16.078125 13.601562 16.800781 14.320312 16.800781 15.199219 16.800781 16.078125 16.078125 16.800781 15.199219 16.800781zM15.199219 16.800781"/>
</svg>

<svg xmlns="http://www.w3.org/2000/svg" width="32" height="32" viewBox="0 0 24 24">
    <path d="M12 0C5.398 0 0 5.398 0 12s5.398 12 12 12 12-5.398 12-12S18.602 0 12 0zm0 23.2C5.84 23.2.8 18.16.8 12 .8 5.84 5.84.8 12 .8 18.16.8 23.2 5.84 23.2 12c0 6.16-5.04 11.2-11.2 11.2zm0 0"/>
    <path d="M12 3.2c-4.84 0-8.8 3.96-8.8 8.8 0 4.84 3.96 8.8 8.8 8.8 4.84 0 8.8-3.96 8.8-8.8 0-4.84-3.96-8.8-8.8-8.8zM12 20c-4.398 0-8-3.602-8-8s3.602-8 8-8 8 3.602 8 8-3.602 8-8 8zm0 0"/>
    <path d="M8.8 6.398a2.41 2.41 0 0 0-2.402 2.403 2.407 2.407 0 0 0 2.403 2.398 2.404 2.404 0 0 0 2.398-2.398 2.407 2.407 0 0 0-2.398-2.403zm0 4a1.605 1.605 0 0 1-1.6-1.597c0-.88.722-1.602 1.6-1.602.88 0 1.598.723 1.598 1.602 0 .879-.718 1.597-1.597 1.597zm0 0M15.2 6.398a2.407 2.407 0 0 0-2.4 2.403 2.404 2.404 0 0 0 2.4 2.398 2.407 2.407 0 0 0 2.402-2.398 2.41 2.41 0 0 0-2.403-2.403zm0 4a1.602 1.602 0 0 1-1.598-1.597c0-.88.718-1.602 1.597-1.602.88 0 1.602.723 1.602 1.602 0 .879-.723 1.597-1.602 1.597zm0 0M8.8 12.8a2.407 2.407 0 0 0-2.402 2.4 2.41 2.41 0 0 0 2.403 2.402 2.407 2.407 0 0 0 2.398-2.403 2.404 2.404 0 0 0-2.398-2.398zm0 4a1.609 1.609 0 0 1-1.6-1.6c0-.88.722-1.598 1.6-1.598.88 0 1.598.718 1.598 1.597 0 .88-.718 1.602-1.597 1.602zm0 0M15.2 12.8a2.404 2.404 0 0 0-2.4 2.4 2.407 2.407 0 0 0 2.4 2.402 2.41 2.41 0 0 0 2.402-2.403 2.407 2.407 0 0 0-2.403-2.398zm0 4a1.605 1.605 0 0 1-1.598-1.6c0-.88.718-1.598 1.597-1.598.88 0 1.602.718 1.602 1.597 0 .88-.723 1.602-1.602 1.602zm0 0"/>
</svg>
